Sweet-Rainbow/icons/input-mouse.svg

<?xml version="1.0" encoding="UTF-8" standalone="no"?>
<!-- Generator: Gravit.io -->

<svg
   xmlns:dc="http://purl.org/dc/elements/1.1/"
   xmlns:cc="http://creativecommons.org/ns#"
   xmlns:rdf="http://www.w3.org/1999/02/22-rdf-syntax-ns#"
   xmlns:svg="http://www.w3.org/2000/svg"
   xmlns="http://www.w3.org/2000/svg"
   xmlns:sodipodi="http://sodipodi.sourceforge.net/DTD/sodipodi-0.dtd"
   xmlns:inkscape="http://www.inkscape.org/namespaces/inkscape"
   style="isolation:isolate"
   viewBox="0 0 48 48"
   width="48"
   height="48"
   version="1.1"
   id="svg9"
   sodipodi:docname="input-mouse.svg"
   inkscape:version="0.92.4 (5da689c313, 2019-01-14)">
  <metadata
     id="metadata15">
    <rdf:RDF>
      <cc:Work
         rdf:about="">
        <dc:format>image/svg+xml</dc:format>
        <dc:type
           rdf:resource="http://purl.org/dc/dcmitype/StillImage" />
        <dc:title></dc:title>
      </cc:Work>
    </rdf:RDF>
  </metadata>
  <defs
     id="defs13" />
  <sodipodi:namedview
     pagecolor="#ffffff"
     bordercolor="#666666"
     borderopacity="1"
     objecttolerance="10"
     gridtolerance="10"
     guidetolerance="10"
     inkscape:pageopacity="0"
     inkscape:pageshadow="2"
     inkscape:window-width="640"
     inkscape:window-height="480"
     id="namedview11"
     showgrid="false"
     inkscape:zoom="39.153656"
     inkscape:cx="18.994082"
     inkscape:cy="24"
     inkscape:current-layer="svg9" />
  <linearGradient
     id="_lgradient_5"
     x1="0"
     y1="0.5"
     x2="1"
     y2="0.5"
     gradientTransform="matrix(30.08,0,0,43.5,8.96,2.5)"
     gradientUnits="userSpaceOnUse">
    <stop
       offset="0%"
       stop-opacity="1"
       style="stop-color:rgb(253,116,108)"
       id="stop2" />
    <stop
       offset="98.26086956521739%"
       stop-opacity="1"
       style="stop-color:rgb(255,144,104)"
       id="stop4" />
  </linearGradient>
  <g
     id="g826"
     transform="matrix(1.1034483,0,0,1.1034483,-2.4827592,-2.7586213)">
    <path
       id="path7"
       d="m 36.957,25.169 c 0.027,0.003 0.053,0.005 0.079,0.007 v 0 c 1.019,0.061 1.896,-0.719 1.958,-1.74 v 0 c 0.027,-0.445 0.046,-0.889 0.046,-1.333 0,0 0,0 0,-0.009 V 21.992 18.077 C 39.058,13.986 37.485,10.052 34.662,7.091 31.886,4.175 28.026,2.519 24,2.5 19.974,2.519 16.114,4.175 13.338,7.091 10.515,10.052 8.942,13.986 8.96,18.077 v 12.346 c -0.018,4.091 1.555,8.025 4.378,10.986 2.776,2.916 6.627,4.572 10.662,4.591 3.785,-0.009 7.432,-1.499 10.135,-4.156 2.702,-2.684 4.368,-6.247 4.664,-10.042 v 0 c 0.082,-1.016 -0.677,-1.908 -1.693,-1.99 v 0 c -1.017,-0.081 -1.909,0.678 -1.99,1.694 v 0 0 c -0.241,2.916 -1.509,5.646 -3.582,7.701 -2.009,1.971 -4.72,3.082 -7.534,3.091 -3.017,-0.019 -5.905,-1.259 -7.987,-3.443 -2.157,-2.268 -3.36,-5.285 -3.351,-8.422 0,0 0,0 0,-0.01 V 18.077 c 0,-0.01 0,-0.01 0,-0.01 -0.009,-3.137 1.194,-6.154 3.351,-8.422 2.082,-2.184 4.97,-3.424 7.987,-3.443 3.017,0.019 5.905,1.259 7.987,3.443 2.157,2.268 3.36,5.285 3.351,8.422 0,0 0,0 0,0.01 v 3.396 H 16.745 c -1.104,0 -2,0.83 -2,1.851 v 0 c 0,1.022 0.896,1.852 2,1.852 H 36.957 Z M 24,10.069 v 0 c 1.022,0 1.851,0.859 1.851,1.916 v 4.099 C 25.851,17.142 25.022,18 24,18 v 0 c -1.022,0 -1.851,-0.858 -1.851,-1.916 v -4.099 c 0,-1.057 0.829,-1.916 1.851,-1.916 z"
       style="fill:url(#_lgradient_5);fill-rule:evenodd"
       inkscape:connector-curvature="0" />
  </g>
</svg>

<?xml version="1.0" standalone="no"?><!-- Generator: Gravit.io --><svg xmlns="http://www.w3.org/2000/svg" xmlns:xlink="http://www.w3.org/1999/xlink" style="isolation:isolate" viewBox="0 0 48 48" width="48px" height="48px"><linearGradient id="_lgradient_5" x1="0" y1="0.5" x2="1" y2="0.5" gradientTransform="matrix(30.08,0,0,43.5,8.96,2.5)" gradientUnits="userSpaceOnUse"><stop offset="0%" stop-opacity="1" style="stop-color:rgb(253,116,108)"/><stop offset="98.26086956521739%" stop-opacity="1" style="stop-color:rgb(255,144,104)"/></linearGradient><path d=" M 36.957 25.169 C 36.984 25.172 37.01 25.174 37.036 25.176 L 37.036 25.176 C 38.055 25.237 38.932 24.457 38.994 23.436 L 38.994 23.436 C 39.021 22.991 39.04 22.547 39.04 22.103 C 39.04 22.103 39.04 22.103 39.04 22.094 L 39.04 21.992 L 39.04 18.077 C 39.058 13.986 37.485 10.052 34.662 7.091 C 31.886 4.175 28.026 2.519 24 2.5 C 19.974 2.519 16.114 4.175 13.338 7.091 C 10.515 10.052 8.942 13.986 8.96 18.077 L 8.96 30.423 C 8.942 34.514 10.515 38.448 13.338 41.409 C 16.114 44.325 19.965 45.981 24 46 C 27.785 45.991 31.432 44.501 34.135 41.844 C 36.837 39.16 38.503 35.597 38.799 31.802 L 38.799 31.802 C 38.881 30.786 38.122 29.894 37.106 29.812 L 37.106 29.812 C 36.089 29.731 35.197 30.49 35.116 31.506 L 35.116 31.506 L 35.116 31.506 C 34.875 34.422 33.607 37.152 31.534 39.207 C 29.525 41.178 26.814 42.289 24 42.298 C 20.983 42.279 18.095 41.039 16.013 38.855 C 13.856 36.587 12.653 33.57 12.662 30.433 C 12.662 30.433 12.662 30.433 12.662 30.423 L 12.662 18.077 C 12.662 18.067 12.662 18.067 12.662 18.067 C 12.653 14.93 13.856 11.913 16.013 9.645 C 18.095 7.461 20.983 6.221 24 6.202 C 27.017 6.221 29.905 7.461 31.987 9.645 C 34.144 11.913 35.347 14.93 35.338 18.067 C 35.338 18.067 35.338 18.067 35.338 18.077 L 35.338 21.473 L 16.745 21.473 C 15.641 21.473 14.745 22.303 14.745 23.324 L 14.745 23.324 C 14.745 24.346 15.641 25.176 16.745 25.176 L 36.957 25.176 L 36.957 25.169 Z  M 24 10.069 L 24 10.069 C 25.022 10.069 25.851 10.928 25.851 11.985 L 25.851 16.084 C 25.851 17.142 25.022 18 24 18 L 24 18 C 22.978 18 22.149 17.142 22.149 16.084 L 22.149 11.985 C 22.149 10.928 22.978 10.069 24 10.069 L 24 10.069 Z " fill-rule="evenodd" fill="url(#_lgradient_5)"/></svg>
